lib/functional/design/pen.svg

<svg xmlns="http://www.w3.org/2000/svg" fill="none" stroke="currentColor" aria-hidden="true" viewBox="0 0 32 32"><g id="Icon-Pen"><g clip-path="url(#clip0_8_771)"><g id="size=md (32px)"><g id="Pen"><path id="Vector" stroke-linecap="round" stroke-linejoin="round" stroke-width="2" d="M11.5875 27H6.00001C5.73479 27 5.48044 26.8946 5.2929 26.7071C5.10536 26.5196 5.00001 26.2652 5.00001 26V20.4125C4.99955 20.2826 5.02471 20.154 5.07404 20.0339C5.12338 19.9137 5.19591 19.8045 5.28751 19.7125L20.2875 4.7125C20.3806 4.61801 20.4915 4.54298 20.6138 4.49176C20.7361 4.44055 20.8674 4.41417 21 4.41417C21.1326 4.41417 21.2639 4.44055 21.3862 4.49176C21.5085 4.54298 21.6195 4.61801 21.7125 4.7125L27.2875 10.2875C27.382 10.3805 27.457 10.4915 27.5082 10.6138C27.5595 10.7361 27.5858 10.8674 27.5858 11C27.5858 11.1326 27.5595 11.2639 27.5082 11.3862C27.457 11.5085 27.382 11.6194 27.2875 11.7125L12.2875 26.7125C12.1955 26.8041 12.0863 26.8766 11.9661 26.926C11.846 26.9753 11.7174 27.0005 11.5875 27V27Z"/><path id="Vector_2" stroke-linecap="round" stroke-linejoin="round" stroke-width="2" d="M17 8L24 15"/><path id="Vector_3" stroke-linecap="round" stroke-linejoin="round" stroke-width="2" d="M20 24L25 19L24 15"/><path id="Vector_4" stroke-linecap="round" stroke-linejoin="round" stroke-width="2" d="M5.0625 20.0625L11.9375 26.9375"/></g></g></g></g><defs><clipPath id="clip0_8_771"><rect width="32" height="32" fill="white" rx="5"/></clipPath></defs></svg>

<svg xmlns="http://www.w3.org/2000/svg" fill="none" stroke="currentColor" aria-hidden="true" viewBox="0 0 32 32"><g stroke="#101828" stroke-linecap="round" stroke-linejoin="round" stroke-width="2" clip-path="url(#a)"><path d="M11.588 27H6a1 1 0 0 1-1-1v-5.587a.987.987 0 0 1 .288-.7l15-15a1 1 0 0 1 1.424 0l5.576 5.574a1 1 0 0 1 0 1.425l-15 15a.987.987 0 0 1-.7.288v0ZM17 8l7 7"/><path d="m20 24 5-5-1-4M5.063 20.063l6.875 6.875"/></g><defs><clipPath id="a"><rect width="32" height="32" fill="#fff" rx="5"/></clipPath></defs></svg>
